dist/images/icons/docs.svg

<svg width="42" height="38" viewBox="0 0 42 38" fill="none" xmlns="http://www.w3.org/2000/svg">
<mask id="path-1-outside-1" maskUnits="userSpaceOnUse" x="0" y="1" width="42" height="36" fill="black">
<rect fill="white" y="1" width="42" height="36"/>
<path fill-rule="evenodd" clip-rule="evenodd" d="M12.333 26C14.543 26 16.333 24.209 16.333 22C16.333 19.791 14.543 18 12.333 18C10.124 18 8.33301 19.791 8.33301 22C8.33594 24.208 10.125 25.9976 12.333 26ZM12.333 19.3335C13.8057 19.3335 15 20.5273 15 22C15 23.4727 13.8057 24.6665 12.333 24.6665C10.8604 24.6665 9.66699 23.4727 9.66699 22C9.66797 20.5278 10.8613 19.335 12.333 19.3335Z"/>
<path d="M19 18H33C33.3682 18 33.667 18.2983 33.667 18.6665C33.667 19.0347 33.3682 19.3335 33 19.3335H19C18.9316 19.3335 18.8662 19.3232 18.8047 19.3042C18.7725 19.2944 18.7412 19.2822 18.7109 19.2676C18.6797 19.2524 18.6494 19.2349 18.6211 19.2148C18.4473 19.0947 18.333 18.8936 18.333 18.6665C18.333 18.2983 18.6318 18 19 18Z"/>
<path d="M33 21.3335H19C18.6318 21.3335 18.333 21.6318 18.333 22C18.333 22.0859 18.3486 22.168 18.3779 22.2432C18.3975 22.2915 18.4219 22.3374 18.4512 22.3794C18.4746 22.4141 18.502 22.4463 18.5322 22.4756C18.6533 22.5938 18.8184 22.6665 19 22.6665H33C33.3682 22.6665 33.667 22.3682 33.667 22C33.667 21.6318 33.3682 21.3335 33 21.3335Z"/>
<path d="M19 24.6665H33C33.3682 24.6665 33.667 24.9653 33.667 25.3335C33.667 25.7017 33.3682 26 33 26H19C18.6318 26 18.333 25.7017 18.333 25.3335C18.333 24.9648 18.6318 24.6665 19 24.6665Z"/>
<path d="M33 28H9C8.63184 28 8.33301 28.2983 8.33301 28.6665C8.33301 29.0347 8.63184 29.3335 9 29.3335H33C33.3682 29.3335 33.667 29.0347 33.667 28.6665C33.667 28.2983 33.3682 28 33 28Z"/>
<path d="M9 31.3335H33C33.3682 31.3335 33.667 31.6318 33.667 32C33.667 32.3682 33.3682 32.6665 33 32.6665H9C8.63184 32.6665 8.33301 32.3682 8.33301 32C8.33301 31.6318 8.63184 31.3335 9 31.3335Z"/>
<path fill-rule="evenodd" clip-rule="evenodd" d="M10.333 2C9.22949 2.00098 8.33496 2.896 8.33301 4V8C7.22949 8.00098 6.33496 8.896 6.33301 10V14C5.22949 14.001 4.33496 14.896 4.33301 16V34.6665H1.66699C1.29883 34.6665 1 34.9648 1 35.3335C1 35.7017 1.29883 36 1.66699 36H40.333C40.7012 36 41 35.7017 41 35.3335C41 34.9653 40.7012 34.6665 40.333 34.6665H37.667V16C37.666 14.896 36.7705 14.001 35.667 14V10C35.666 8.896 34.7705 8.00098 33.667 8V4C33.666 2.896 32.7705 2.00098 31.667 2H10.333ZM9.66699 4C9.66699 3.63184 9.96484 3.3335 10.333 3.3335H31.667C32.0352 3.3335 32.333 3.63184 32.333 4V8H18.2656C17.9492 6.44824 16.584 5.3335 15 5.3335C13.416 5.3335 12.0508 6.44824 11.7344 8H9.66699V4ZM13.123 8C13.4014 7.20166 14.1543 6.6665 15 6.6665C15.8457 6.6665 16.5986 7.20166 16.877 8H13.123ZM7.94531 9.45752L8 9.42236C8.09766 9.36572 8.21191 9.3335 8.33301 9.3335H33.667C34.0352 9.3335 34.333 9.63184 34.333 10V14H16.2656C15.9492 12.4482 14.584 11.3335 13 11.3335C11.416 11.3335 10.0508 12.4482 9.73438 14H7.66699V10C7.66699 9.95508 7.67188 9.91113 7.68066 9.86865C7.69141 9.81152 7.70996 9.75732 7.73438 9.70703C7.7832 9.60742 7.85547 9.52148 7.94531 9.45752ZM11.3584 13.5337C11.457 13.3892 11.5732 13.2598 11.7041 13.1475C12.0566 12.8442 12.5127 12.6665 13 12.6665C13.8457 12.6665 14.5986 13.2017 14.877 14H11.123C11.1816 13.832 11.2607 13.6758 11.3584 13.5337ZM36.333 34.6665H5.66699V16C5.66699 15.6318 5.96484 15.3335 6.33301 15.3335H35.667C36.0352 15.3335 36.333 15.6318 36.333 16V34.6665Z"/>
</mask>
<path fill-rule="evenodd" clip-rule="evenodd" d="M12.333 26C14.543 26 16.333 24.209 16.333 22C16.333 19.791 14.543 18 12.333 18C10.124 18 8.33301 19.791 8.33301 22C8.33594 24.208 10.125 25.9976 12.333 26ZM12.333 19.3335C13.8057 19.3335 15 20.5273 15 22C15 23.4727 13.8057 24.6665 12.333 24.6665C10.8604 24.6665 9.66699 23.4727 9.66699 22C9.66797 20.5278 10.8613 19.335 12.333 19.3335Z" fill="#00B4E3"/>
<path d="M19 18H33C33.3682 18 33.667 18.2983 33.667 18.6665C33.667 19.0347 33.3682 19.3335 33 19.3335H19C18.9316 19.3335 18.8662 19.3232 18.8047 19.3042C18.7725 19.2944 18.7412 19.2822 18.7109 19.2676C18.6797 19.2524 18.6494 19.2349 18.6211 19.2148C18.4473 19.0947 18.333 18.8936 18.333 18.6665C18.333 18.2983 18.6318 18 19 18Z" fill="#00B4E3"/>
<path d="M33 21.3335H19C18.6318 21.3335 18.333 21.6318 18.333 22C18.333 22.0859 18.3486 22.168 18.3779 22.2432C18.3975 22.2915 18.4219 22.3374 18.4512 22.3794C18.4746 22.4141 18.502 22.4463 18.5322 22.4756C18.6533 22.5938 18.8184 22.6665 19 22.6665H33C33.3682 22.6665 33.667 22.3682 33.667 22C33.667 21.6318 33.3682 21.3335 33 21.3335Z" fill="#00B4E3"/>
<path d="M19 24.6665H33C33.3682 24.6665 33.667 24.9653 33.667 25.3335C33.667 25.7017 33.3682 26 33 26H19C18.6318 26 18.333 25.7017 18.333 25.3335C18.333 24.9648 18.6318 24.6665 19 24.6665Z" fill="#00B4E3"/>
<path d="M33 28H9C8.63184 28 8.33301 28.2983 8.33301 28.6665C8.33301 29.0347 8.63184 29.3335 9 29.3335H33C33.3682 29.3335 33.667 29.0347 33.667 28.6665C33.667 28.2983 33.3682 28 33 28Z" fill="#00B4E3"/>
<path d="M9 31.3335H33C33.3682 31.3335 33.667 31.6318 33.667 32C33.667 32.3682 33.3682 32.6665 33 32.6665H9C8.63184 32.6665 8.33301 32.3682 8.33301 32C8.33301 31.6318 8.63184 31.3335 9 31.3335Z" fill="#00B4E3"/>
<path fill-rule="evenodd" clip-rule="evenodd" d="M10.333 2C9.22949 2.00098 8.33496 2.896 8.33301 4V8C7.22949 8.00098 6.33496 8.896 6.33301 10V14C5.22949 14.001 4.33496 14.896 4.33301 16V34.6665H1.66699C1.29883 34.6665 1 34.9648 1 35.3335C1 35.7017 1.29883 36 1.66699 36H40.333C40.7012 36 41 35.7017 41 35.3335C41 34.9653 40.7012 34.6665 40.333 34.6665H37.667V16C37.666 14.896 36.7705 14.001 35.667 14V10C35.666 8.896 34.7705 8.00098 33.667 8V4C33.666 2.896 32.7705 2.00098 31.667 2H10.333ZM9.66699 4C9.66699 3.63184 9.96484 3.3335 10.333 3.3335H31.667C32.0352 3.3335 32.333 3.63184 32.333 4V8H18.2656C17.9492 6.44824 16.584 5.3335 15 5.3335C13.416 5.3335 12.0508 6.44824 11.7344 8H9.66699V4ZM13.123 8C13.4014 7.20166 14.1543 6.6665 15 6.6665C15.8457 6.6665 16.5986 7.20166 16.877 8H13.123ZM7.94531 9.45752L8 9.42236C8.09766 9.36572 8.21191 9.3335 8.33301 9.3335H33.667C34.0352 9.3335 34.333 9.63184 34.333 10V14H16.2656C15.9492 12.4482 14.584 11.3335 13 11.3335C11.416 11.3335 10.0508 12.4482 9.73438 14H7.66699V10C7.66699 9.95508 7.67188 9.91113 7.68066 9.86865C7.69141 9.81152 7.70996 9.75732 7.73438 9.70703C7.7832 9.60742 7.85547 9.52148 7.94531 9.45752ZM11.3584 13.5337C11.457 13.3892 11.5732 13.2598 11.7041 13.1475C12.0566 12.8442 12.5127 12.6665 13 12.6665C13.8457 12.6665 14.5986 13.2017 14.877 14H11.123C11.1816 13.832 11.2607 13.6758 11.3584 13.5337ZM36.333 34.6665H5.66699V16C5.66699 15.6318 5.96484 15.3335 6.33301 15.3335H35.667C36.0352 15.3335 36.333 15.6318 36.333 16V34.6665Z" fill="#00B4E3"/>
<path fill-rule="evenodd" clip-rule="evenodd" d="M12.333 26C14.543 26 16.333 24.209 16.333 22C16.333 19.791 14.543 18 12.333 18C10.124 18 8.33301 19.791 8.33301 22C8.33594 24.208 10.125 25.9976 12.333 26ZM12.333 19.3335C13.8057 19.3335 15 20.5273 15 22C15 23.4727 13.8057 24.6665 12.333 24.6665C10.8604 24.6665 9.66699 23.4727 9.66699 22C9.66797 20.5278 10.8613 19.335 12.333 19.3335Z" stroke="#00B4E3" stroke-width="0.4" mask="url(#path-1-outside-1)"/>
<path d="M19 18H33C33.3682 18 33.667 18.2983 33.667 18.6665C33.667 19.0347 33.3682 19.3335 33 19.3335H19C18.9316 19.3335 18.8662 19.3232 18.8047 19.3042C18.7725 19.2944 18.7412 19.2822 18.7109 19.2676C18.6797 19.2524 18.6494 19.2349 18.6211 19.2148C18.4473 19.0947 18.333 18.8936 18.333 18.6665C18.333 18.2983 18.6318 18 19 18Z" stroke="#00B4E3" stroke-width="0.4" mask="url(#path-1-outside-1)"/>
<path d="M33 21.3335H19C18.6318 21.3335 18.333 21.6318 18.333 22C18.333 22.0859 18.3486 22.168 18.3779 22.2432C18.3975 22.2915 18.4219 22.3374 18.4512 22.3794C18.4746 22.4141 18.502 22.4463 18.5322 22.4756C18.6533 22.5938 18.8184 22.6665 19 22.6665H33C33.3682 22.6665 33.667 22.3682 33.667 22C33.667 21.6318 33.3682 21.3335 33 21.3335Z" stroke="#00B4E3" stroke-width="0.4" mask="url(#path-1-outside-1)"/>
<path d="M19 24.6665H33C33.3682 24.6665 33.667 24.9653 33.667 25.3335C33.667 25.7017 33.3682 26 33 26H19C18.6318 26 18.333 25.7017 18.333 25.3335C18.333 24.9648 18.6318 24.6665 19 24.6665Z" stroke="#00B4E3" stroke-width="0.4" mask="url(#path-1-outside-1)"/>
<path d="M33 28H9C8.63184 28 8.33301 28.2983 8.33301 28.6665C8.33301 29.0347 8.63184 29.3335 9 29.3335H33C33.3682 29.3335 33.667 29.0347 33.667 28.6665C33.667 28.2983 33.3682 28 33 28Z" stroke="#00B4E3" stroke-width="0.4" mask="url(#path-1-outside-1)"/>
<path d="M9 31.3335H33C33.3682 31.3335 33.667 31.6318 33.667 32C33.667 32.3682 33.3682 32.6665 33 32.6665H9C8.63184 32.6665 8.33301 32.3682 8.33301 32C8.33301 31.6318 8.63184 31.3335 9 31.3335Z" stroke="#00B4E3" stroke-width="0.4" mask="url(#path-1-outside-1)"/>
<path fill-rule="evenodd" clip-rule="evenodd" d="M10.333 2C9.22949 2.00098 8.33496 2.896 8.33301 4V8C7.22949 8.00098 6.33496 8.896 6.33301 10V14C5.22949 14.001 4.33496 14.896 4.33301 16V34.6665H1.66699C1.29883 34.6665 1 34.9648 1 35.3335C1 35.7017 1.29883 36 1.66699 36H40.333C40.7012 36 41 35.7017 41 35.3335C41 34.9653 40.7012 34.6665 40.333 34.6665H37.667V16C37.666 14.896 36.7705 14.001 35.667 14V10C35.666 8.896 34.7705 8.00098 33.667 8V4C33.666 2.896 32.7705 2.00098 31.667 2H10.333ZM9.66699 4C9.66699 3.63184 9.96484 3.3335 10.333 3.3335H31.667C32.0352 3.3335 32.333 3.63184 32.333 4V8H18.2656C17.9492 6.44824 16.584 5.3335 15 5.3335C13.416 5.3335 12.0508 6.44824 11.7344 8H9.66699V4ZM13.123 8C13.4014 7.20166 14.1543 6.6665 15 6.6665C15.8457 6.6665 16.5986 7.20166 16.877 8H13.123ZM7.94531 9.45752L8 9.42236C8.09766 9.36572 8.21191 9.3335 8.33301 9.3335H33.667C34.0352 9.3335 34.333 9.63184 34.333 10V14H16.2656C15.9492 12.4482 14.584 11.3335 13 11.3335C11.416 11.3335 10.0508 12.4482 9.73438 14H7.66699V10C7.66699 9.95508 7.67188 9.91113 7.68066 9.86865C7.69141 9.81152 7.70996 9.75732 7.73438 9.70703C7.7832 9.60742 7.85547 9.52148 7.94531 9.45752ZM11.3584 13.5337C11.457 13.3892 11.5732 13.2598 11.7041 13.1475C12.0566 12.8442 12.5127 12.6665 13 12.6665C13.8457 12.6665 14.5986 13.2017 14.877 14H11.123C11.1816 13.832 11.2607 13.6758 11.3584 13.5337ZM36.333 34.6665H5.66699V16C5.66699 15.6318 5.96484 15.3335 6.33301 15.3335H35.667C36.0352 15.3335 36.333 15.6318 36.333 16V34.6665Z" stroke="#00B4E3" stroke-width="0.4" mask="url(#path-1-outside-1)"/>
</svg>

<svg width="42" height="38" viewBox="0 0 42 38" fill="none" xmlns="http://www.w3.org/2000/svg"><mask id="path-1-outside-1" maskUnits="userSpaceOnUse" x="0" y="1" width="42" height="36" fill="#000"><path fill="#fff" d="M0 1h42v36H0z"/><path fill-rule="evenodd" clip-rule="evenodd" d="M12.333 26a4 4 0 100-8 4 4 0 000 8zm0-6.666a2.667 2.667 0 110 5.333 2.667 2.667 0 010-5.334z"/><path d="M19 18h14a.667.667 0 110 1.334H19a.66.66 0 01-.379-.12A.666.666 0 0119 18zm14 3.334H19a.667.667 0 100 1.332h14a.667.667 0 100-1.332zm-14 3.332h14A.667.667 0 0133 26H19a.667.667 0 110-1.334zM33 28H9a.667.667 0 100 1.334h24A.667.667 0 0033 28zM9 31.334h24a.667.667 0 110 1.332H9a.667.667 0 110-1.332z"/><path fill-rule="evenodd" clip-rule="evenodd" d="M10.333 2a2.003 2.003 0 00-2 2v4a2.003 2.003 0 00-2 2v4a2.003 2.003 0 00-2 2v18.666H1.667a.667.667 0 100 1.334h38.666a.667.667 0 100-1.334h-2.666V16a2.002 2.002 0 00-2-2v-4a2.002 2.002 0 00-2-2V4a2.002 2.002 0 00-2-2H10.333zm-.666 2c0-.368.298-.667.666-.667h21.334c.368 0 .666.299.666.667v4H18.266a3.333 3.333 0 00-6.532 0H9.667V4zm3.456 4a1.988 1.988 0 013.754 0h-3.754zM7.945 9.458L8 9.422a.663.663 0 01.333-.088h25.334c.368 0 .666.298.666.666v4H16.266a3.333 3.333 0 00-6.532 0H7.667v-4c0-.045.005-.089.014-.131a.665.665 0 01.265-.411zm3.413 4.076A1.985 1.985 0 0113 12.667c.846 0 1.599.535 1.877 1.333h-3.754c.059-.168.138-.324.235-.466zm24.975 21.133H5.667V16c0-.368.298-.666.666-.666h29.334c.368 0 .666.298.666.666v18.666z"/></mask><path fill-rule="evenodd" clip-rule="evenodd" d="M12.333 26a4 4 0 100-8 4 4 0 000 8zm0-6.666a2.667 2.667 0 110 5.333 2.667 2.667 0 010-5.334z" fill="#00B4E3"/><path d="M19 18h14a.667.667 0 110 1.334H19a.66.66 0 01-.379-.12A.666.666 0 0119 18zm14 3.334H19a.667.667 0 100 1.332h14a.667.667 0 100-1.332zm-14 3.332h14A.667.667 0 0133 26H19a.667.667 0 110-1.334zM33 28H9a.667.667 0 100 1.334h24A.667.667 0 0033 28zM9 31.334h24a.667.667 0 110 1.332H9a.667.667 0 110-1.332z" fill="#00B4E3"/><path fill-rule="evenodd" clip-rule="evenodd" d="M10.333 2a2.003 2.003 0 00-2 2v4a2.003 2.003 0 00-2 2v4a2.003 2.003 0 00-2 2v18.666H1.667a.667.667 0 100 1.334h38.666a.667.667 0 100-1.334h-2.666V16a2.002 2.002 0 00-2-2v-4a2.002 2.002 0 00-2-2V4a2.002 2.002 0 00-2-2H10.333zm-.666 2c0-.368.298-.667.666-.667h21.334c.368 0 .666.299.666.667v4H18.266a3.333 3.333 0 00-6.532 0H9.667V4zm3.456 4a1.988 1.988 0 013.754 0h-3.754zM7.945 9.458L8 9.422a.663.663 0 01.333-.088h25.334c.368 0 .666.298.666.666v4H16.266a3.333 3.333 0 00-6.532 0H7.667v-4c0-.045.005-.089.014-.131a.665.665 0 01.265-.411zm3.413 4.076A1.985 1.985 0 0113 12.667c.846 0 1.599.535 1.877 1.333h-3.754c.059-.168.138-.324.235-.466zm24.975 21.133H5.667V16c0-.368.298-.666.666-.666h29.334c.368 0 .666.298.666.666v18.666z" fill="#00B4E3"/><path clip-rule="evenodd" d="M12.333 26a4 4 0 100-8 4 4 0 000 8zm0-6.666a2.667 2.667 0 110 5.333 2.667 2.667 0 010-5.334z" stroke="#00B4E3" stroke-width=".4" mask="url(#path-1-outside-1)"/><path d="M19 18h14a.667.667 0 110 1.334H19a.66.66 0 01-.379-.12A.666.666 0 0119 18zm14 3.334H19a.667.667 0 100 1.332h14a.667.667 0 100-1.332zm-14 3.332h14A.667.667 0 0133 26H19a.667.667 0 110-1.334zM33 28H9a.667.667 0 100 1.334h24A.667.667 0 0033 28zM9 31.334h24a.667.667 0 110 1.332H9a.667.667 0 110-1.332z" stroke="#00B4E3" stroke-width=".4" mask="url(#path-1-outside-1)"/><path clip-rule="evenodd" d="M10.333 2a2.003 2.003 0 00-2 2v4a2.003 2.003 0 00-2 2v4a2.003 2.003 0 00-2 2v18.666H1.667a.667.667 0 100 1.334h38.666a.667.667 0 100-1.334h-2.666V16a2.002 2.002 0 00-2-2v-4a2.002 2.002 0 00-2-2V4a2.002 2.002 0 00-2-2H10.333zm-.666 2c0-.368.298-.667.666-.667h21.334c.368 0 .666.299.666.667v4H18.266a3.333 3.333 0 00-6.532 0H9.667V4zm3.456 4a1.988 1.988 0 013.754 0h-3.754zM7.945 9.458L8 9.422a.663.663 0 01.333-.088h25.334c.368 0 .666.298.666.666v4H16.266a3.333 3.333 0 00-6.532 0H7.667v-4c0-.045.005-.089.014-.131a.665.665 0 01.265-.411zm3.413 4.076A1.985 1.985 0 0113 12.667c.846 0 1.599.535 1.877 1.333h-3.754c.059-.168.138-.324.235-.466zm24.975 21.133H5.667V16c0-.368.298-.666.666-.666h29.334c.368 0 .666.298.666.666v18.666z" stroke="#00B4E3" stroke-width=".4" mask="url(#path-1-outside-1)"/></svg>
